packages/core/src/svgs/tokens/branded/TETU.svg

<svg width="24" height="24" viewBox="0 0 24 24" fill="none" xmlns="http://www.w3.org/2000/svg">
<path d="M12 9.81142C12.9945 9.81142 13.9484 9.41621 14.6516 8.713C15.3549 8.00975 15.7499 7.05592 15.7499 6.06136C15.7499 5.0668 15.3549 4.11298 14.6516 3.40971C13.9484 2.70646 12.9945 2.31137 12 2.31137C11.0054 2.31137 10.0516 2.70646 9.34828 3.40971C8.64509 4.11298 8.25 5.0668 8.25 6.06136C8.25 7.05592 8.64509 8.00975 9.34828 8.713C10.0516 9.41621 11.0054 9.81142 12 9.81142Z" fill="#04A8F0"/>
<path d="M11.9937 11.6864C10.3762 11.6736 8.82791 11.0291 7.67895 9.89074C6.52998 8.75222 5.8714 7.20984 5.84373 5.59261C5.98748 3.99886 4.56249 3.99886 4.175 4.43011L4.0875 4.51761C2.74134 6.17292 2.00442 8.2402 2 10.3739C2 12.3113 3.91874 13.5614 5.95624 13.5614H18.0437C20.0625 13.5614 22 12.3238 22 10.3739C21.9929 8.20098 21.223 6.09965 19.8249 4.43636C19.425 3.99886 17.9999 3.99886 18.1437 5.59261C18.1437 8.83637 15.3938 11.6864 11.9937 11.6864Z" fill="#686DF1"/>
<path d="M13.1247 21.1176L16.1248 16.905C16.756 16.03 16.1123 14.8113 14.9998 14.8113H8.99981C7.88731 14.8113 7.24355 16.0239 7.87481 16.905L10.8748 21.1176C11.0042 21.2944 11.1735 21.4384 11.369 21.5377C11.5645 21.6369 11.7806 21.6886 11.9998 21.6886C12.219 21.6886 12.4351 21.6369 12.6306 21.5377C12.8261 21.4384 12.9954 21.2944 13.1247 21.1176Z" fill="#04A8F0"/>
</svg>

<svg xmlns="http://www.w3.org/2000/svg" width="24" height="24" fill="none" viewBox="0 0 24 24">
    <path fill="#04A8F0" d="M12 9.811a3.75 3.75 0 1 0 0-7.5 3.75 3.75 0 0 0 0 7.5"/>
    <path fill="#686DF1" d="M11.994 11.686a6.2 6.2 0 0 1-6.15-6.093c.143-1.594-1.282-1.594-1.669-1.163l-.087.088A9.3 9.3 0 0 0 2 10.374c0 1.937 1.919 3.187 3.956 3.187h12.088c2.018 0 3.956-1.237 3.956-3.187a9.28 9.28 0 0 0-2.175-5.938C19.425 4 18 4 18.144 5.593c0 3.243-2.75 6.093-6.15 6.093"/>
    <path fill="#04A8F0" d="m13.125 21.118 3-4.213c.631-.875-.013-2.094-1.125-2.094H9c-1.113 0-1.756 1.213-1.125 2.094l3 4.213a1.396 1.396 0 0 0 2.25 0"/>
</svg>
